X:199
T:Haul Away Joe
R:song
Z:id:hn-song-199
M:4/4
L:1/8
Q:1/4=90
K:Bm
BB BF AA AF | EE DE (FA) A2 |
B2 B>F A3 F | E>E F2 B,3
F | BB BF AA AF | EE DE (FA) A2 |
B2 B>F A3 F | E>E F2 B,4 ||
B2 B>F A3 F | EE DE (FA) A2 |
B2 B>F A3 F | E>E F2 B,4 ||
W:When I was a little lad and so my mother told me,
W:Way, haul away, we'll haul away, Joe!
W:That if I did not kiss the girls, my lips would grow all moldy.
W:Way, haul away, we'll haul away, Joe!
W:
W:Chorus:
W:Way, haul away, we'll haul for better weather.
W:Way, haul away, we'll haul away, Joe!
W:[Way haul away, we'll haul away together.
W:Way, haul away, we'll haul away, Joe!]
W:
W:King Louis was the king of France before the revolution.
W:Way, haul away, we'll haul away, Joe!
W:But then he got his head cut off, which spoiled his constitution.
W:Way, haul away, we'll haul away, Joe!
W:
W:Chorus
W:
W:I used to have a Yankee girl, but she was fat and lazy.
W:Way, haul away, we'll haul away, Joe!
W:But now I've got an Irish girl, and she damn near drove me crazy.
W:Way, haul away, we'll haul away, Joe!
W:
W:Chorus
W:
W:The cook is in the galley boys, making duff so handy.
W:Way, haul away, we'll haul away, Joe!
W:The captain's in his cabin lads, drinking wine and brandy.
W:Way, haul away, we'll haul away, Joe!
W:
W:Chorus

